images/icons/vsco.svg

<svg fill="none" height="24" viewBox="0 0 24 24" width="24" xmlns="http://www.w3.org/2000/svg" xmlns:xlink="http://www.w3.org/1999/xlink"><clipPath id="a"><path d="m0 0h24v24h-24z"/></clipPath><g clip-path="url(#a)"><path d="m23.9932 11.6186c-.1977-6.32401-5.2871-11.414464-11.61-11.6121134v-.0064866h-.3815-.3814v.0064866c-6.32292.1976494-11.412387 5.2881034-11.6099997 11.6121134h-.0103003v.7632h.0103003c.0412009 1.3221.2960377 2.5904.7317007 3.7717l-.0103.0042.291459.7051.00649-.0026c1.81628 4.0961 5.85781 6.9853 10.59095 7.1333v.0065h.763v-.0065c6.3228-.1976 11.4123-5.2877 11.6099-11.6121h.0065v-.7631h-.0065zm-3.4388 0c-.0492-.8867-.2335-1.73763-.5322-2.53241l2.4759-1.10043c.4448 1.16149.6901 2.38024.7317 3.63284zm-4.9243 8.2456c.8122-.3804 1.5546-.8844 2.2035-1.4877l1.8357 1.8361c-.94.8791-2.0104 1.5828-3.1885 2.0956zm-8.47715 2.2757c-1.0338-.4949-1.97952-1.142-2.82073-1.9292l1.83571-1.8361c.58714.5464 1.25094 1.0116 1.97387 1.3771zm1.05825-17.72366c-.7065.3491-1.35809.7929-1.93796 1.31488l-1.94102-1.94142c.84121-.78717 1.78693-1.4343 2.82073-1.92919zm8.2395-2.73698c1.1899.51359 2.2706 1.22178 3.2183 2.10853l-1.9415 1.94177c-.6867-.61776-1.4733-1.12563-2.3332-1.49686l1.056-2.55305zm1.8212 4.58525 1.9369-1.93719c.8213.87762 1.4897 1.86892 1.9921 2.95562l-2.479 1.10156c-.3757-.77954-.8667-1.49346-1.45-2.11999zm-3.2331-1.35493c.7893.33386 1.5103.79101 2.1489 1.36031l-1.5668 1.56706c-.8789-.76464-2.0024-1.25571-3.2377-1.34007v-2.19131c.9191.04388 1.8106.24651 2.6556.60401zm.3242 10.45452c-.898.8982-2.0917 1.3927-3.3617 1.3927s-2.46362-.4945-3.36168-1.3927c-.89802-.8982-1.39244-2.0921-1.39244-3.3624 0-1.2702.49442-2.46412 1.39244-3.36232.89806-.89821 2.09168-1.39273 3.36168-1.39273s2.4637.49452 3.3617 1.39273c.8981.8982 1.3925 2.09212 1.3925 3.36232 0 1.2703-.4944 2.4642-1.3925 3.3624zm-3.7432-8.86722c-1.236.08436-2.36026.57581-3.23959 1.34158l-1.56678-1.56706c.63899-.57043 1.36078-1.02796 2.15085-1.3622.84503-.3575 1.73692-.56013 2.65552-.60401zm-5.89057-.23044c-.60275.64791-1.1067 1.38966-1.48705 2.20049l-2.49151-1.07335c.50776-1.12945 1.1933-2.15736 2.04174-3.06435zm-.91826 2.79725c.35288-.83447.84272-1.59226 1.45807-2.25734l1.57174 1.57206c-.76601.87948-1.25816 2.00399-1.34285 3.24059h-2.28474c.05341-.8833.25331-1.74142.59778-2.55531zm1.68658 3.31811c.08431 1.237.57567 2.3619 1.34172 3.2417l-1.66634 1.6667c-.57033-.6391-1.02776-1.361-1.36196-2.1512-.37041-.8761-.57413-1.8025-.60731-2.7572zm.20982 5.4529 1.67133-1.6716c.87971.7665 2.0043 1.2584 3.2411 1.3431v2.3905c-.919-.0439-1.81049-.2465-2.65552-.604-.83432-.353-1.59198-.8425-2.25691-1.458zm5.67543-.3285c1.236-.0843 2.3599-.5758 3.2393-1.3412l1.6713 1.6716c-.6646.6143-1.4214 1.1039-2.255 1.4565-.845.3575-1.7366.5601-2.6556.6039zm5.9856.3262c.5666-.6292 1.0411-1.3427 1.4024-2.1196l2.4233 1.0184c-.5021 1.081-1.1678 2.0677-1.9858 2.9415zm.8233-2.6938c-.3346.7909-.7927 1.5133-1.3635 2.1531l-1.6663-1.6666c.7671-.8803 1.2593-2.0059 1.3432-3.2437h2.2943c-.0336.9547-.2373 1.8811-.6077 2.7572zm-1.687-3.5203c-.0847-1.2375-.5772-2.36268-1.3443-3.24258l1.5713-1.57168c.6161.66545 1.1067 1.424 1.46 2.25927.3445.81427.5444 1.67159.5978 2.55499zm-1.7644-10.21758-1.059 2.56068c-.7279-.23962-1.4985-.38423-2.2981-.41934v-2.771681c1.154.038156 2.279.249161 3.3571.630341zm-4.12 2.14134c-.9523.04159-1.86402.23886-2.71057.56663l-1.05749-2.5542c1.20206-.47848 2.46676-.741378 3.76806-.784493zm-10.15805 4.55817 2.48733 1.07146c-.28001.77034-.45283 1.59191-.50051 2.44731h-2.675023c.040057-1.2114.270863-2.39202.688203-3.51877zm-.688203 4.28157h2.666243c.02785.8623.18236 1.6922.44673 2.4717l-2.43926 1.0081c-.40858-1.1153-.634038-2.2817-.673713-3.4798zm3.390693 3.183c.36891.8337.86639 1.5976 1.46796 2.2661l-1.83991 1.8403c-.85798-.9169-1.54885-1.9582-2.05815-3.1022zm3.6875 6.8811.9854-2.3802c.86674.345 1.80326.5518 2.78266.5949v2.5698c-1.3013-.0431-2.566-.306-3.76806-.7845zm4.53096-1.7853c.8889-.0389 1.7427-.2133 2.5411-.5029l.8466 2.4313c-1.0873.3877-2.2226.6029-3.3877.6414zm10.1091-4.6315-2.43-1.0214c.2971-.8238.4711-1.7063.5009-2.6256h2.6666c-.0416 1.2577-.2892 2.4814-.7375 3.647z" fill="#fff"/></g></svg>

<svg width="24" height="24" viewBox="0 0 24 24" fill="none" xmlns="http://www.w3.org/2000/svg">
<g clip-path="url(#clip0_1450_902)">
<path d="M23.9932 11.6186C23.7955 5.29459 18.7061 0.204136 12.3832 0.0064866V0H12.0017H11.6203V0.0064866C5.29738 0.204136 0.207913 5.29459 0.0103003 11.6186H0V12.3818H0.0103003C0.0515012 13.7039 0.306338 14.9722 0.742001 16.1535L0.731701 16.1577L1.02316 16.8628L1.02965 16.8602C2.84593 20.9563 6.88746 23.8455 11.6206 23.9935V24H12.3836V23.9935C18.7064 23.7959 23.7959 18.7058 23.9935 12.3814H24V11.6183H23.9935L23.9932 11.6186ZM20.5544 11.6186C20.5052 10.7319 20.3209 9.88097 20.0222 9.08619L22.4981 7.98576C22.9429 9.14725 23.1882 10.366 23.2298 11.6186H20.5544ZM15.6301 19.8642C16.4423 19.4838 17.1847 18.9798 17.8336 18.3765L19.6693 20.2126C18.7293 21.0917 17.6589 21.7954 16.4808 22.3082L15.6301 19.8642ZM7.15295 22.1399C6.11915 21.645 5.17343 20.9979 4.33222 20.2107L6.16793 18.3746C6.75507 18.921 7.41887 19.3862 8.1418 19.7517L7.15295 22.1399ZM8.2112 4.41624C7.5047 4.76534 6.85311 5.20914 6.27324 5.73112L4.33222 3.7897C5.17343 3.00253 6.11915 2.3554 7.15295 1.86051L8.2112 4.41624ZM16.4507 1.67926C17.6406 2.19285 18.7213 2.90104 19.669 3.78779L17.7275 5.72956C17.0408 5.1118 16.2542 4.60393 15.3943 4.2327L16.4503 1.67965L16.4507 1.67926ZM18.2719 6.26451L20.2088 4.32732C21.0301 5.20494 21.6985 6.19624 22.2009 7.28294L19.7219 8.3845C19.3462 7.60496 18.8552 6.89104 18.2719 6.26451ZM15.0388 4.90958C15.8281 5.24344 16.5491 5.70059 17.1877 6.26989L15.6209 7.83695C14.742 7.07231 13.6185 6.58124 12.3832 6.49688V4.30557C13.3023 4.34945 14.1938 4.55208 15.0388 4.90958ZM15.363 15.3641C14.465 16.2623 13.2713 16.7568 12.0013 16.7568C10.7313 16.7568 9.53768 16.2623 8.63962 15.3641C7.7416 14.4659 7.24718 13.272 7.24718 12.0017C7.24718 10.7315 7.7416 9.53758 8.63962 8.63938C9.53768 7.74117 10.7313 7.24665 12.0013 7.24665C13.2713 7.24665 14.465 7.74117 15.363 8.63938C16.2611 9.53758 16.7555 10.7315 16.7555 12.0017C16.7555 13.272 16.2611 14.4659 15.363 15.3641ZM11.6198 6.49688C10.3838 6.58124 9.25954 7.07269 8.38021 7.83846L6.81343 6.2714C7.45242 5.70097 8.17421 5.24344 8.96428 4.9092C9.80931 4.5517 10.7012 4.34907 11.6198 4.30519V6.49688ZM5.72923 6.26644C5.12648 6.91435 4.62253 7.6561 4.24218 8.46693L1.75067 7.39358C2.25843 6.26413 2.94397 5.23622 3.79241 4.32923L5.72923 6.26644ZM4.81097 9.06369C5.16385 8.22922 5.65369 7.47143 6.26904 6.80635L7.84078 8.37841C7.07477 9.25789 6.58262 10.3824 6.49793 11.619H4.21319C4.2666 10.7357 4.4665 9.87758 4.81097 9.06369ZM6.49755 12.3818C6.58186 13.6188 7.07322 14.7437 7.83927 15.6235L6.17293 17.2902C5.6026 16.6511 5.14517 15.9292 4.81097 15.139C4.44056 14.2629 4.23684 13.3365 4.20366 12.3818H6.49755ZM6.70737 17.8347L8.3787 16.1631C9.25841 16.9296 10.383 17.4215 11.6198 17.5062V19.8967C10.7008 19.8528 9.80931 19.6502 8.96428 19.2927C8.12996 18.9397 7.3723 18.4502 6.70737 17.8347ZM12.3828 17.5062C13.6188 17.4219 14.7427 16.9304 15.6221 16.165L17.2934 17.8366C16.6288 18.4509 15.872 18.9405 15.0384 19.2931C14.1934 19.6506 13.3018 19.8532 12.3828 19.897V17.5062ZM18.3684 17.8324C18.935 17.2032 19.4095 16.4897 19.7708 15.7128L22.1941 16.7312C21.692 17.8122 21.0263 18.7989 20.2083 19.6727L18.3684 17.8324ZM19.1917 15.1386C18.8571 15.9295 18.399 16.6519 17.8282 17.2917L16.1619 15.6251C16.929 14.7448 17.4212 13.6192 17.5051 12.3814H19.7994C19.7658 13.3361 19.5621 14.2625 19.1917 15.1386ZM17.5047 11.6183C17.42 10.3808 16.9275 9.25562 16.1604 8.37572L17.7317 6.80404C18.3478 7.46949 18.8384 8.22804 19.1917 9.06331C19.5362 9.87758 19.7361 10.7349 19.7895 11.6183H17.5047ZM15.7403 1.40072L14.6813 3.9614C13.9534 3.72178 13.1828 3.57717 12.3832 3.54206V0.770379C13.5372 0.808535 14.6622 1.01954 15.7403 1.40072ZM11.6203 3.54206C10.668 3.58365 9.75628 3.78092 8.90973 4.10869L7.85224 1.55449C9.0543 1.07601 10.319 0.813112 11.6203 0.769997V3.54206ZM1.46225 8.10023L3.94958 9.17169C3.66957 9.94203 3.49675 10.7636 3.44907 11.619H0.774047C0.814104 10.4076 1.04491 9.22698 1.46225 8.10023ZM0.774047 12.3818H3.44029C3.46814 13.2441 3.62265 14.074 3.88702 14.8535L1.44776 15.8616C1.03918 14.7463 0.813722 13.5799 0.774047 12.3818ZM4.16474 15.5648C4.53365 16.3985 5.03113 17.1624 5.6327 17.8309L3.79279 19.6712C2.93481 18.7543 2.24394 17.713 1.73464 16.569L4.16474 15.5648ZM7.85224 22.4459L8.83764 20.0657C9.70438 20.4107 10.6409 20.6175 11.6203 20.6606V23.2304C10.319 23.1873 9.0543 22.9244 7.85224 22.4459ZM12.3832 20.6606C13.2721 20.6217 14.1259 20.4473 14.9243 20.1577L15.7709 22.589C14.6836 22.9767 13.5483 23.1919 12.3832 23.2304V20.6606ZM22.4923 16.0291L20.0623 15.0077C20.3594 14.1839 20.5334 13.3014 20.5632 12.3821H23.2298C23.1882 13.6398 22.9406 14.8635 22.4923 16.0291Z" fill="white"/>
</g>
<defs>
<clipPath id="clip0_1450_902">
<rect width="24" height="24" fill="white"/>
</clipPath>
</defs>
</svg>
